X:495
T:Polska # 495
T: efter Melker Andersson
M:3/4
L:1/16
Q: 120
K: D
|: DFAd f2df a4 | gfed (cd)ef g4 | (gb)ge (fa)fd e2f2 | gfec dAF2 D4|
DFAd f2df a4 | gfed (cd)ef g4 | (gb)ge (fa)fd e2f2 | gfed c2d2 d4 :|
a2[DF]2 [DF]2a2 (ba)gf | g2[EC]2 [EC]2g2 (ag)fe | f2[AD]2 [AD]2f2 f2d2 | edcd edcB AGFE |
DFAd f2df a4 | gfed (cd)ef g4 | (gb)ge (fa)fd e2f2 | gfed c2d2 d4 :|

